X: 609
T: Polska efter Schenell
T: "Snällagudmorslåten"
R: Polska
S: efter Pelle Schenell
S: efter Mårten Andersson
O: Gnarp, Hälsingland
N: Finns på [[http://www.smus.se/earkiv/fmk/browselarge.php?lang=sw&katalogid=Hs+17&bildnr=00012|SMUS]]
Z: Håkan Lidén, 2009-01-05
M: 3/4
L: 1/8
K: Gm
d>g b/a/g/^f/ g2 | d>c B/A/B/c/ d2 | c>B Ac BA | GB A^F D2 |
d>g b/a/g/^f/ g2 | d>c B/A/B/c/ d2 | c>B Ac BA | G^F G4 :: D2 G2 B2 |
AG ^F/G/A/F/ G2 | G>^F GA Bc | cd d4 | d2 g2 b2 | a>g ^f/g/a/f/ g2 | 
dc/B/ cB/A/ BG | Ad G4 :: B2 A2 G2 | ^F/G/A/F/ G4 | d2 c2 B2 | 
c/d/e/c/ d4 | g>a ba g>^f | a>g ^fg d2 | cA/c/ BG/B/ A^F | D^F G4:|
(:musicend:)

(:music:)
